X:4
T:Bare Necessities
M:3/4
L:1/8
K:C
%
|:A4 G2|FE D4|d4 c2|BA G4|A4 G2|FE D2 F2|ED C2 E2|D6:|
f4 g2|agfe d2|efgfed|c3 B2 A|F4 g2|agfedc|B2 G2 B2|d4 cB|
AGFGAB|c2 G2 F2|FEDEFG|A4 B^c|d4 a2|^fe d2 ^f2| e2 d2 B2|d6||
%%topmargin 1.2 in
%%bottommargin 1.0 in
%%titlefont Times-Roman 24
%%composerspace 0
%%partsspace 0
%%writehistory 1
%%scale 0.7
%%maxshrink 1
%
%
